icons/person-arrow-left-outline.svg

<svg xmlns="http://www.w3.org/2000/svg" width="24" height="24" viewBox="0 0 24 24">
  <path d="M10.4676228,16.0003645 L11.0076763,16.0057544 C14.4141691,16.0682088 15.80903,16.6867426 15.9842893,19.0917479 L15.9953786,19.2802927 L16,19.5 L16,20.5 C16,20.7383924 15.9971539,20.817813 15.9690676,20.9648045 C15.9064905,21.2923056 15.7318635,21.5826456 15.4244325,21.7746571 C15.1451825,21.9490675 14.9786076,21.9883117 14.4919729,21.9973073 L14,22 L4,22 L3.65107363,21.9952256 C2.49782794,21.9601842 2.04900063,21.7156474 2.0039004,20.7255244 L2.00017148,20.5789484 L2,19.5 C2,16.7811217 3.40027757,16.074116 6.99322939,16.0059404 L7.53477183,16.0003645 L10.4676228,16.0003645 Z M7.53716646,18.0003616 C4.63739326,18.0073055 4.03538181,18.220675 4.00155904,19.3876232 L3.99999999,19.4998411 L3.999,20 L14,20 L14.0002452,19.5221452 L13.9966548,19.3478329 C13.9474604,18.265257 13.4009903,18.0221242 10.7281847,18.0016669 L7.53716646,18.0003616 Z M9,6 C11.209139,6 13,7.790861 13,10 C13,12.209139 11.209139,14 9,14 C6.790861,14 5,12.209139 5,10 C5,7.790861 6.790861,6 9,6 Z M9,8 C7.8954305,8 7,8.8954305 7,10 C7,11.1045695 7.8954305,12 9,12 C10.1045695,12 11,11.1045695 11,10 C11,8.8954305 10.1045695,8 9,8 Z M14.001,6.059 L14.002,6.059 L14,6.018 L14,6 L14.0000451,5.99040127 L14.0001802,5.98082404 L14.0017331,5.94096861 C14.0023256,5.93088722 14.00307,5.92081308 14.003998,5.90996805 L14.003998,5.90996805 L14.0110178,5.85153313 C14.0136281,5.83405099 14.0167022,5.81662474 14.0201652,5.7992059 C14.0246398,5.77725392 14.0298336,5.75556352 14.0358451,5.73400703 C14.0400977,5.71853672 14.0447287,5.70314866 14.0495467,5.68826359 C14.0561225,5.66820232 14.0633157,5.6484208 14.0712255,5.62866398 L14.0712255,5.62866398 L14.0936538,5.57690085 C14.1033766,5.5561086 14.1137939,5.53570605 14.1246712,5.5159379 L14.1246712,5.5159379 L14.1460674,5.47933981 C14.1617187,5.45372505 14.1784901,5.42886931 14.1963346,5.40469339 L14.1963346,5.40469339 L14.22,5.374 L14.216,5.378 L14.2196888,5.37455101 L14.232,5.359 L14.242208,5.34743396 L14.242208,5.34743396 L14.2928932,5.29289322 L17.2928932,2.29289322 L17.3871006,2.20970461 C17.7793918,1.90467972 18.3466228,1.93240926 18.7071068,2.29289322 C19.0976311,2.68341751 19.0976311,3.31658249 18.7071068,3.70710678 L18.7071068,3.70710678 L17.415,5 L21,5 L21.1166211,5.00672773 C21.6139598,5.06449284 22,5.48716416 22,6 C22,6.55228475 21.5522847,7 21,7 L21,7 L17.415,7 L18.7071068,8.29289322 L18.7902954,8.38710056 C19.0953203,8.77939176 19.0675907,9.34662282 18.7071068,9.70710678 C18.3165825,10.0976311 17.6834175,10.0976311 17.2928932,9.70710678 L17.2928932,9.70710678 L14.2928932,6.70710678 L14.2196888,6.62544899 C14.2173721,6.62256244 14.2150711,6.61966276 14.2097046,6.61289944 C14.2051745,6.60707334 14.2007179,6.60120864 14.1963135,6.5951593 C14.1784901,6.57113069 14.1617187,6.54627495 14.1459955,6.52070875 C14.1386069,6.50861311 14.1314988,6.49639444 14.1248758,6.48427695 C14.1137939,6.46429395 14.1033766,6.4438914 14.0936734,6.42322155 L14.0936734,6.42322155 L14.071104,6.37105852 C14.0633157,6.3515792 14.0561225,6.33179768 14.0497381,6.31214252 C14.0447287,6.29685134 14.0400977,6.28146328 14.035721,6.26583961 C14.0298336,6.24443648 14.0246398,6.22274608 14.0202401,6.20072576 C14.0167022,6.18337526 14.0136281,6.16594901 14.0110193,6.14896122 C14.0037612,6.10036209 14,6.05062028 14,6 L14.001,6.059 Z"/>
</svg>

<svg xmlns="http://www.w3.org/2000/svg" viewBox="0 0 24 24">
  <path d="M10.47 16H11c3.4.07 4.8.69 4.97 3.1l.02.18v1.22c0 .24 0 .32-.03.46a1.2 1.2 0 0 1-.55.81c-.27.18-.44.22-.93.23H3.65c-1.15-.04-1.6-.28-1.65-1.27V19.5c0-2.72 1.4-3.43 5-3.5h3.46zm-2.93 2c-2.9 0-3.5.22-3.54 1.39V20h10v-.65c-.05-1.08-.6-1.33-3.27-1.35h-3.2zM9 6a4 4 0 1 1 0 8 4 4 0 0 1 0-8zm0 2a2 2 0 1 0 0 4 2 2 0 0 0 0-4zm5-1.94V5.9l.01-.06a1.1 1.1 0 0 1 .06-.22l.02-.05.03-.06.03-.04.05-.08.02-.03.01-.01.01-.01.05-.06 3-3 .1-.08a1 1 0 0 1 1.32 1.5L17.4 5h3.71A1 1 0 0 1 21 7h-3.59l1.3 1.3.08.09a1 1 0 0 1-1.5 1.32l-3-3-.07-.08a3 3 0 0 1-.1-.15 1.02 1.02 0 0 1-.03-.06l-.02-.05A.95.95 0 0 1 14 6v.06z"/>
</svg>
